svg/u1f930.svg

<svg viewBox="0 0 128 128" xmlns="http://www.w3.org/2000/svg">
  <path id="head_28_" d="M89.34,33.93c2.42-10-3.21-21.17-11.35-24.57c-5.99-2.49-12.92-1.99-18.92,0.2 c-9.28,3.23-13.27,11.47-12.55,20.43c0.29,4.62,1.55,7.21,3.26,10.78c0.79,2.41-3.03,5.42-2.94,8.06c0.04,1.97,4.24,2.26,4.63,2.53 c0.42,0.27,0.8,1.11,1.06,1.76c1.84,4.54,3.45,7.49,11.23,6.49c2.63-0.42,5.18-1.4,5.71-0.99c0.6,0.47,1.03,3.54,1.14,4.19 c0.29,1.69-2.01,5.35-2.01,5.35l19.54-2.24l1.5,0.31l0,0c0,0-5.87-16.24-2.41-27.4C87.71,37.32,89.02,35.08,89.34,33.93z" fill="#FFCA28"/>
  <path id="mouth_28_" d="M52.57,53.17c0.38,0,0.77-0.03,1.14-0.1c0.91-0.13,1.75-0.41,2.39-0.88 c1.42-1.04,2.63-0.11,1.48,1.23c-0.79,0.92-1.78,1.54-2.87,1.9c-0.36,0.12-0.73,0.22-1.09,0.28L52.57,53.17z" fill="#795548"/>
  <path id="hair_28_" d="M94.87,32.58C92.43,18.53,85.75,5.12,66.33,6.21C54.4,6.88,43.58,15.67,43.72,24.29 c0.04,2.45,1.29,4.77,2.81,5.69c2.98,1.91,9.44,2.27,20.08,4.16c7.81,1.38,8.51,18.65,9.62,26.68c0,0,0.43,3.23,0.41,3.69 c-0.02,0.19-0.03,0.29-0.03,0.29l0.01,0l8.33,0.56c4.44-0.32,8.63-2.09,10.85-7.4C95.8,57.95,99,50.1,94.87,32.58z" fill="#543930"/>
  <radialGradient id="hairHighlights_1_" cx="69.4087" cy="37.8691" gradientTransform="matrix(0.9604 -0.2785 0.3502 1.2079 -11.4224 12.3626)" gradientUnits="userSpaceOnUse" r="29.1107">
    <stop offset="0.583" stop-color="#6D4C41" stop-opacity="0"/>
    <stop offset="1" stop-color="#6D4C41"/>
  </radialGradient>
  <path id="hairHighlights_28_" d="M94.87,32.58C92.43,18.53,85.75,5.12,66.33,6.21 C54.4,6.88,43.11,15.74,43.87,24.97c0.2,2.44,1.14,4.09,2.66,5.01c2.98,1.91,9.52,2.3,20.08,4.16c7.74,1.36,8.83,19.87,9.14,22.68 c0.23,2.11,0.92,7.23,0.89,7.69c-0.02,0.19-0.03,0.29-0.03,0.29l0.01,0l8.33,0.56c4.44-0.32,8.63-2.09,10.85-7.4 C95.8,57.95,99,50.1,94.87,32.58z" fill="url(#hairHighlights_1_)"/>
  <path id="eye_28_" d="M59.38,42.82c1.77,0.04-0.76,2.27-3.16,2.4c-1.74,0.1-3.79-0.71-3.06-3.34 c0.31-1.12,1.03,0.87,2.55,1.1C57.23,43.21,59.38,42.82,59.38,42.82z" fill="#404040"/>
  <path id="eyebrow_28_" d="M53.55,37.53c-2.08,0.43-2.56-0.58-1.95-1.71c0.45-0.83,2.05-1.31,4.43-0.84 c2.45,0.48,3.39,1.45,4.04,2.19c0.65,0.75,0.63,1.53,0.12,1.63C59.5,38.95,57.07,36.81,53.55,37.53z" fill="#6D4C41"/>
  <radialGradient id="SVGID_1_" cx="48.9053" cy="97.5801" gradientUnits="userSpaceOnUse" r="45.2448">
    <stop offset="0.2555" stop-color="#AA00FF"/>
    <stop offset="0.9874" stop-color="#9500E0"/>
  </radialGradient>
  <path d="M36.13,124h57.51c0,0-2.29-7.91-1.67-14.68c0.95-10.22,4.33-13.44,4.33-29.56 c0-11.58-6.34-21.93-14.61-21.59C71.18,58.61,67.64,63.7,59.87,68.5c-10.51,6.5-11.6,11.33-10.77,16.89 c0.26,1.78-0.75,2.25-2.08,3.09c-9.18,5.88-16.01,11.97-15.34,24.53C32.04,119.83,36.13,124,36.13,124z" fill="url(#SVGID_1_)"/>
  <linearGradient id="arm_2_" gradientUnits="userSpaceOnUse" x1="62.5035" x2="62.5035" y1="80.9835" y2="124.6199">
    <stop offset="0" stop-color="#FFB300"/>
    <stop offset="0.5056" stop-color="#FFCA28"/>
  </linearGradient>
  <path id="arm_1_" d="M88.24,70.96c-2.65-5.96-12.42-2.8-13.47,4.75c-0.88,6.33,1.97,28.11,1.97,28.11 s-7.27,3.99-15.61,5c-1.99,0.24-5.81,0.43-6.4,0.14c-1.06-0.52-1.45-1.65-1.95-2.31c-0.62-0.81-1.26-1.63-2.08-2.26 c-0.62-0.47-1.34-0.82-2.04-1.16c-1.17-0.56-2.35-1.12-3.52-1.69c-0.29-0.14-0.63-0.28-0.92-0.16c-0.15,0.07-0.27,0.2-0.36,0.34 c-0.38,0.66-0.04,1.53,0.51,2.06c0.55,0.53,1.27,0.84,1.89,1.28s1.17,1.13,1.1,1.89c-1.72,0.26-4.26,0.3-5.92,0.09 c-1.61-0.21-2.26-0.45-3.45-0.69c-0.61-0.13-1.78-0.51-2.14,0.37c-0.29,0.69,0.08,1.14,0.46,1.49c0.03,0.03,0.06,0.05,0.09,0.08 c-0.16-0.11-0.38-0.25-0.64-0.4c-0.14-0.08-0.32-0.21-0.93-0.14c-0.58,0.07-0.77,0.54-0.81,0.89c-0.13,1.18,1.03,1.85,1.09,1.84 c0,0-0.72-0.06-0.9,0.86c-0.1,0.53,0.23,1.09,0.62,1.62c0.39,0.53,1.26,1.19,1.26,1.19s-0.6,0.05-0.73,0.55 c-0.2,0.76,0.37,1.41,1.37,1.99c0,0,1.53,1.06,3.11,1.64c3.66,1.33,6.9,1.31,8.33,1.17c3.65-0.37,31.92-2.68,37.3-4.55 c5.02-1.75,5.13-5.71,5.42-8.97C91.23,102.02,90.89,76.92,88.24,70.96z" fill="url(#arm_2_)"/>
  <g id="tone">
    <path d="M43.33,109.88c0.56-0.01,1.02,0.21,0.54,0.71c-0.26,0.27-2.43-0.14-3.73-0.45 c-1.56-0.37-3.26-1.16-3.94-1.9c-0.27-0.3-0.17-0.29-0.17-0.29c1.21,0.52,2.54,1.14,3.91,1.38 C41.32,109.57,42.77,109.89,43.33,109.88z" fill="#EDA600"/>
    <path d="M43.53,113.85c-0.02,0.49-0.68,0.37-0.94,0.35c-1.73-0.11-3.31-0.68-4.7-1.32 c-2.88-1.32-3.15-2.6-3.15-2.6s2.12,1.35,3.39,1.84c1.27,0.49,2.97,0.95,4.68,1.18C43.02,113.33,43.55,113.36,43.53,113.85z" fill="#EDA600"/>
    <path d="M43.6,116.86c-0.01,0.51-0.69,0.43-1.21,0.38c0,0-1.97-0.35-3.94-1.25c-2.03-0.93-3.1-2.35-3.1-2.35 s2.27,1.24,3.21,1.57c0.84,0.29,2.66,0.8,4.07,1.05C42.86,116.31,43.61,116.41,43.6,116.86z" fill="#EDA600"/>
  </g>
  <path id="arm_x5F_shirt_36_" d="M77.05,91.31l12.6-0.79c2.55-0.16,4.44-1.03,4.4-3.32l-1.4-14.7 c-0.99-6.96-5.19-8.47-11.22-8.09c-6.03,0.37-9.42,4.94-9.32,10.37l0.45,13.93C72.61,91,74.5,91.47,77.05,91.31z" fill="#7600B3"/>
</svg>

<svg viewBox="0 0 128 128" xmlns="http://www.w3.org/2000/svg">
  <defs>
    <radialGradient id="hairHighlights_1_" cx="54.99511" cy="44.780612" gradientTransform="matrix(0.9604 -0.2785 0.3502 1.2079 0 0)" gradientUnits="userSpaceOnUse" r="29.1107">
      <stop offset="0.583" stop-color="#6D4C41" stop-opacity="0"/>
      <stop offset="1" stop-color="#6D4C41"/>
    </radialGradient>
    <radialGradient id="SVGID_1_" cx="48.9053" cy="97.5801" gradientUnits="userSpaceOnUse" r="45.2448">
      <stop offset="0.2555" stop-color="#AA00FF"/>
      <stop offset="0.9874" stop-color="#9500E0"/>
    </radialGradient>
    <linearGradient id="arm_2_" gradientUnits="userSpaceOnUse" x1="62.5035" x2="62.5035" y1="80.9835" y2="124.6199">
      <stop offset="0" stop-color="#FFB300"/>
      <stop offset="0.5056" stop-color="#FFCA28"/>
    </linearGradient>
  </defs>
  <path id="head_28_" d="M89.34,33.93 C91.76,23.93 86.13,12.76 77.99,9.36 C72,6.87 65.07,7.37 59.07,9.56 C49.79,12.79 45.8,21.03 46.52,29.99 C46.81,34.61 48.07,37.2 49.78,40.77 C50.57,43.18 46.75,46.19 46.84,48.83 C46.88,50.8 51.08,51.09 51.47,51.36 C51.89,51.63 52.27,52.47 52.53,53.12 C54.37,57.66 55.98,60.61 63.76,59.61 C66.39,59.19 68.94,58.21 69.47,58.62 C70.07,59.09 70.5,62.16 70.61,62.81 C70.9,64.5 68.6,68.16 68.6,68.16 L88.14,65.92 L89.64,66.23 L89.64,66.23 C89.64,66.23 83.77,49.99 87.23,38.83 C87.71,37.32 89.02,35.08 89.34,33.93 Z" fill="#FFCA28"/>
  <path id="mouth_28_" d="M52.57,53.17 C52.95,53.17 53.34,53.14 53.71,53.07 C54.62,52.94 55.46,52.66 56.1,52.19 C57.52,51.15 58.73,52.08 57.58,53.42 C56.79,54.34 55.8,54.96 54.71,55.32 C54.35,55.44 53.98,55.54 53.62,55.6 L52.57,53.17 Z" fill="#795548"/>
  <path id="hair_28_" d="M94.87,32.58 C92.43,18.53 85.75,5.12 66.33,6.21 C54.4,6.88 43.58,15.67 43.72,24.29 C43.76,26.74 45.01,29.06 46.53,29.98 C49.51,31.89 55.97,32.25 66.61,34.14 C74.42,35.52 75.12,52.79 76.23,60.82 C76.23,60.82 76.66,64.05 76.64,64.51 C76.62,64.7 76.61,64.8 76.61,64.8 L76.62,64.8 L84.95,65.36 C89.39,65.04 93.58,63.27 95.8,57.96 C95.8,57.95 99,50.1 94.87,32.58 Z" fill="#543930"/>
  <path id="hairHighlights_28_" d="M94.87,32.58 C92.43,18.53 85.75,5.12 66.33,6.21 C54.4,6.88 43.11,15.74 43.87,24.97 C44.07,27.41 45.01,29.06 46.53,29.98 C49.51,31.89 56.05,32.28 66.61,34.14 C74.35,35.5 75.44,54.01 75.75,56.82 C75.98,58.93 76.67,64.05 76.64,64.51 C76.62,64.7 76.61,64.8 76.61,64.8 L76.62,64.8 L84.95,65.36 C89.39,65.04 93.58,63.27 95.8,57.96 C95.8,57.95 99,50.1 94.87,32.58 Z" fill="url(#hairHighlights_1_)"/>
  <path id="eye_28_" d="M59.38,42.82 C61.15,42.86 58.62,45.09 56.22,45.22 C54.48,45.32 52.43,44.51 53.16,41.88 C53.47,40.76 54.19,42.75 55.71,42.98 C57.23,43.21 59.38,42.82 59.38,42.82 Z" fill="#404040"/>
  <path id="eyebrow_28_" d="M53.55,37.53 C51.47,37.96 50.99,36.95 51.6,35.82 C52.05,34.99 53.65,34.51 56.03,34.98 C58.48,35.46 59.42,36.43 60.07,37.17 C60.72,37.92 60.7,38.7 60.19,38.8 C59.5,38.95 57.07,36.81 53.55,37.53 Z" fill="#6D4C41"/>
  <path d="M36.13,124 L93.64,124 C93.64,124 91.35,116.09 91.97,109.32 C92.92,99.1 96.3,95.88 96.3,79.76 C96.3,68.18 89.96,57.83 81.69,58.17 C71.18,58.61 67.64,63.7 59.87,68.5 C49.36,75 48.27,79.83 49.1,85.39 C49.36,87.17 48.35,87.64 47.02,88.48 C37.84,94.36 31.01,100.45 31.68,113.01 C32.04,119.83 36.13,124 36.13,124 Z" fill="url(#SVGID_1_)"/>
  <path id="arm_1_" d="M88.24,70.96 C85.59,65 75.82,68.16 74.77,75.71 C73.89,82.04 76.74,103.82 76.74,103.82 C76.74,103.82 69.47,107.81 61.13,108.82 C59.14,109.06 55.32,109.25 54.73,108.96 C53.67,108.44 53.28,107.31 52.78,106.65 C52.16,105.84 51.52,105.02 50.7,104.39 C50.08,103.92 49.36,103.57 48.66,103.23 C47.49,102.67 46.31,102.11 45.14,101.54 C44.85,101.4 44.51,101.26 44.22,101.38 C44.07,101.45 43.95,101.58 43.86,101.72 C43.48,102.38 43.82,103.25 44.37,103.78 C44.92,104.31 45.64,104.62 46.26,105.06 C46.88,105.5 47.43,106.19 47.36,106.95 C45.64,107.21 43.1,107.25 41.44,107.04 C39.83,106.83 39.18,106.59 37.99,106.35 C37.38,106.22 36.21,105.84 35.85,106.72 C35.56,107.41 35.93,107.86 36.31,108.21 C36.34,108.24 36.37,108.26 36.4,108.29 C36.24,108.18 36.02,108.04 35.76,107.89 C35.62,107.81 35.44,107.68 34.83,107.75 C34.25,107.82 34.06,108.29 34.02,108.64 C33.89,109.82 35.05,110.49 35.11,110.48 C35.11,110.48 34.39,110.42 34.21,111.34 C34.11,111.87 34.44,112.43 34.83,112.96 C35.22,113.49 36.09,114.15 36.09,114.15 C36.09,114.15 35.49,114.2 35.36,114.7 C35.16,115.46 35.73,116.11 36.73,116.69 C36.73,116.69 38.26,117.75 39.84,118.33 C43.5,119.66 46.74,119.64 48.17,119.5 C51.82,119.13 80.09,116.82 85.47,114.95 C90.49,113.2 90.6,109.24 90.89,105.98 C91.23,102.02 90.89,76.92 88.24,70.96 Z" fill="url(#arm_2_)"/>
  <path d="M43.33,109.88 C43.89,109.87 44.35,110.09 43.87,110.59 C43.61,110.86 41.44,110.45 40.14,110.14 C38.58,109.77 36.88,108.98 36.2,108.24 C35.93,107.94 36.03,107.95 36.03,107.95 C37.24,108.47 38.57,109.09 39.94,109.33 C41.32,109.57 42.77,109.89 43.33,109.88 Z" fill="#EDA600"/>
  <path d="M43.53,113.85 C43.51,114.34 42.85,114.22 42.59,114.2 C40.86,114.09 39.28,113.52 37.89,112.88 C35.01,111.56 34.74,110.28 34.74,110.28 C34.74,110.28 36.86,111.63 38.13,112.12 C39.4,112.61 41.1,113.07 42.81,113.3 C43.02,113.33 43.55,113.36 43.53,113.85 Z" fill="#EDA600"/>
  <path d="M43.6,116.86 C43.59,117.37 42.91,117.29 42.39,117.24 C42.39,117.24 40.42,116.89 38.45,115.99 C36.42,115.06 35.35,113.64 35.35,113.64 C35.35,113.64 37.62,114.88 38.56,115.21 C39.4,115.5 41.22,116.01 42.63,116.26 C42.86,116.31 43.61,116.41 43.6,116.86 Z" fill="#EDA600"/>
  <path id="arm_x5F_shirt_36_" d="M77.05,91.31 L89.65,90.52 C92.2,90.36 94.09,89.49 94.05,87.2 L92.65,72.5 C91.66,65.54 87.46,64.03 81.43,64.41 C75.4,64.78 72.01,69.35 72.11,74.78 L72.56,88.71 C72.61,91 74.5,91.47 77.05,91.31 Z" fill="#7600B3"/>
</svg>
